public/images/career-map.svg

<svg width="96" height="96" viewBox="0 0 96 96" fill="none" xmlns="http://www.w3.org/2000/svg">
<rect width="96" height="96" fill="white"/>
<path fill-rule="evenodd" clip-rule="evenodd" d="M39.2851 23.0878C48.7587 24.0105 52.7377 34.5117 58.9254 41.6963C65.6217 49.4713 77.4714 55.4383 75.8492 65.5424C74.1928 75.8587 61.6391 79.2811 52.1633 83.8145C42.6861 88.3486 32.8019 94.6384 23.0094 90.8219C12.6071 86.7678 6.15532 76.1271 4.33882 65.1756C2.646 54.9698 7.51178 45.3137 14.1375 37.334C20.5973 29.5541 29.1808 22.1036 39.2851 23.0878Z" fill="#5FEEA9"/>
<path d="M14.5 81C14.5 79.067 16.067 77.5 18 77.5H76C77.933 77.5 79.5 79.067 79.5 81V86.5H14.5V81Z" stroke="black" stroke-width="5"/>
<path d="M36 38L36 77" stroke="black" stroke-width="5" stroke-linecap="round" stroke-linejoin="round"/>
<path d="M60 38L60 77" stroke="black" stroke-width="5" stroke-linecap="round" stroke-linejoin="round"/>
<path d="M60 67H36" stroke="black" stroke-width="5" stroke-linecap="round" stroke-linejoin="round"/>
<path d="M60 57H36" stroke="black" stroke-width="5" stroke-linecap="round" stroke-linejoin="round"/>
<path d="M60 47H36" stroke="black" stroke-width="5" stroke-linecap="round" stroke-linejoin="round"/>
<mask id="path-8-inside-1_1063:1110" fill="white">
<path d="M47.1156 10.6763C47.4908 9.96519 48.5092 9.96519 48.8844 10.6763L51.4383 15.5168C51.583 15.7911 51.8468 15.9827 52.1523 16.0356L57.5451 16.9687C58.3374 17.1057 58.6521 18.0744 58.0917 18.651L54.2773 22.5757C54.0612 22.798 53.9604 23.108 54.0046 23.415L54.7836 28.8322C54.8981 29.628 54.0741 30.2267 53.3526 29.8719L48.4412 27.457C48.163 27.3201 47.837 27.3201 47.5588 27.457L42.6474 29.8719C41.9259 30.2267 41.1019 29.628 41.2164 28.8322L41.9954 23.415C42.0396 23.108 41.9388 22.798 41.7227 22.5757L37.9083 18.651C37.3479 18.0744 37.6626 17.1057 38.4549 16.9687L43.8477 16.0356C44.1532 15.9827 44.417 15.7911 44.5617 15.5168L47.1156 10.6763Z"/>
</mask>
<path d="M47.1156 10.6763C47.4908 9.96519 48.5092 9.96519 48.8844 10.6763L51.4383 15.5168C51.583 15.7911 51.8468 15.9827 52.1523 16.0356L57.5451 16.9687C58.3374 17.1057 58.6521 18.0744 58.0917 18.651L54.2773 22.5757C54.0612 22.798 53.9604 23.108 54.0046 23.415L54.7836 28.8322C54.8981 29.628 54.0741 30.2267 53.3526 29.8719L48.4412 27.457C48.163 27.3201 47.837 27.3201 47.5588 27.457L42.6474 29.8719C41.9259 30.2267 41.1019 29.628 41.2164 28.8322L41.9954 23.415C42.0396 23.108 41.9388 22.798 41.7227 22.5757L37.9083 18.651C37.3479 18.0744 37.6626 17.1057 38.4549 16.9687L43.8477 16.0356C44.1532 15.9827 44.417 15.7911 44.5617 15.5168L47.1156 10.6763Z" fill="black"/>
<path d="M44.5617 15.5168L55.175 21.1165L44.5617 15.5168ZM37.9083 18.651L29.303 27.0145L37.9083 18.651ZM38.4549 16.9687L36.409 5.14434L38.4549 16.9687ZM41.9954 23.415L53.8732 25.1231L41.9954 23.415ZM41.7227 22.5757L33.1174 30.9392L41.7227 22.5757ZM42.6474 29.8719L47.9424 40.6405L42.6474 29.8719ZM41.2164 28.8322L29.3386 27.124L41.2164 28.8322ZM47.5588 27.457L42.2638 16.6883L47.5588 27.457ZM53.3526 29.8719L48.0576 40.6405L53.3526 29.8719ZM54.2773 22.5757L45.672 14.2121L54.2773 22.5757ZM54.0046 23.415L42.1268 25.1231L54.0046 23.415ZM57.5451 16.9687L55.4992 28.793L57.5451 16.9687ZM51.4383 15.5168L40.825 21.1165L51.4383 15.5168ZM52.1523 16.0356L50.1064 27.8599L52.1523 16.0356ZM48.8844 10.6763L38.2711 16.276L48.8844 10.6763ZM47.1156 10.6763L36.5022 5.07666L47.1156 10.6763ZM38.2711 16.276L40.825 21.1165L62.0517 9.91717L59.4978 5.07666L38.2711 16.276ZM50.1064 27.8599L55.4992 28.793L59.591 5.14434L54.1982 4.21126L50.1064 27.8599ZM49.4864 10.2875L45.672 14.2121L62.8826 30.9392L66.697 27.0145L49.4864 10.2875ZM42.1268 25.1231L42.9058 30.5403L66.6614 27.124L65.8824 21.7068L42.1268 25.1231ZM58.6475 19.1033L53.7362 16.6883L43.1463 38.2256L48.0576 40.6405L58.6475 19.1033ZM42.2638 16.6883L37.3525 19.1033L47.9424 40.6405L52.8537 38.2256L42.2638 16.6883ZM53.0942 30.5403L53.8732 25.1231L30.1176 21.7068L29.3386 27.124L53.0942 30.5403ZM50.328 14.2121L46.5136 10.2875L29.303 27.0145L33.1174 30.9392L50.328 14.2121ZM40.5008 28.793L45.8936 27.8599L41.8018 4.21126L36.409 5.14434L40.5008 28.793ZM55.175 21.1165L57.7289 16.276L36.5022 5.07666L33.9483 9.91717L55.175 21.1165ZM45.8936 27.8599C49.8656 27.1726 53.294 24.6817 55.175 21.1165L33.9483 9.91717C35.5399 6.90047 38.4409 4.79277 41.8018 4.21126L45.8936 27.8599ZM46.5136 10.2875C52.678 16.63 49.216 27.285 40.5008 28.793L36.409 5.14434C26.1093 6.92646 22.0179 19.5187 29.303 27.0145L46.5136 10.2875ZM53.8732 25.1231C54.447 21.1332 53.1375 17.1028 50.328 14.2121L33.1174 30.9392C30.7402 28.4932 29.6321 25.0829 30.1176 21.7068L53.8732 25.1231ZM37.3525 19.1033C45.2895 15.2006 54.3532 21.7857 53.0942 30.5403L29.3386 27.124C27.8507 37.4703 38.5623 45.2528 47.9424 40.6405L37.3525 19.1033ZM53.7362 16.6883C50.1189 14.9097 45.8811 14.9097 42.2638 16.6883L52.8537 38.2256C49.7929 39.7306 46.2071 39.7306 43.1463 38.2256L53.7362 16.6883ZM42.9058 30.5403C41.6468 21.7858 50.7105 15.2006 58.6475 19.1033L48.0576 40.6405C57.4377 45.2528 68.1493 37.4703 66.6614 27.124L42.9058 30.5403ZM45.672 14.2121C42.8625 17.1028 41.553 21.1332 42.1268 25.1231L65.8824 21.7068C66.3679 25.0829 65.2598 28.4932 62.8826 30.9392L45.672 14.2121ZM55.4992 28.793C46.7841 27.285 43.322 16.6301 49.4864 10.2875L66.697 27.0145C73.9822 19.5187 69.8907 6.92645 59.591 5.14434L55.4992 28.793ZM40.825 21.1165C42.706 24.6817 46.1344 27.1726 50.1064 27.8599L54.1982 4.21126C57.5591 4.79278 60.4601 6.90047 62.0517 9.91717L40.825 21.1165ZM59.4978 5.07666C54.6201 -4.16827 41.3798 -4.16823 36.5022 5.07666L57.7289 16.276C53.6017 24.0986 42.3984 24.0986 38.2711 16.276L59.4978 5.07666Z" fill="black" mask="url(#path-8-inside-1_1063:1110)"/>
<path d="M27 19L19 19" stroke="black" stroke-width="4" stroke-linecap="round" stroke-linejoin="round"/>
<path d="M29.3613 12L25.3613 8" stroke="black" stroke-width="4" stroke-linecap="round" stroke-linejoin="round"/>
<path d="M26.3613 29L29.3613 26" stroke="black" stroke-width="4" stroke-linecap="round" stroke-linejoin="round"/>
<path d="M69.3613 19L77.3613 19" stroke="black" stroke-width="4" stroke-linecap="round" stroke-linejoin="round"/>
<path d="M67 12L71 8" stroke="black" stroke-width="4" stroke-linecap="round" stroke-linejoin="round"/>
<path d="M70 29L67 26" stroke="black" stroke-width="4" stroke-linecap="round" stroke-linejoin="round"/>
</svg>

<svg width="96" height="96" fill="none" xmlns="http://www.w3.org/2000/svg"><path fill="#fff" d="M0 0h96v96H0z"/><path fill-rule="evenodd" clip-rule="evenodd" d="M39.285 23.088c9.474.922 13.453 11.424 19.64 18.608 6.697 7.775 18.546 13.742 16.924 23.846-1.656 10.317-14.21 13.74-23.686 18.272-9.477 4.535-19.361 10.824-29.154 7.008C12.607 86.768 6.155 76.127 4.34 65.176 2.646 54.97 7.512 45.314 14.137 37.334c6.46-7.78 15.044-15.23 25.148-14.246Z" fill="#5FEEA9"/><path d="M14.5 81a3.5 3.5 0 0 1 3.5-3.5h58a3.5 3.5 0 0 1 3.5 3.5v5.5h-65V81Z" stroke="#000" stroke-width="5"/><path d="M36 38v39M60 38v39M60 67H36M60 57H36M60 47H36" stroke="#000" stroke-width="5" stroke-linecap="round" stroke-linejoin="round"/><mask id="a" fill="#fff"><path d="M47.116 10.676a1 1 0 0 1 1.768 0l2.554 4.84a1 1 0 0 0 .714.52l5.393.933a1 1 0 0 1 .547 1.682l-3.815 3.925a1 1 0 0 0-.272.839l.779 5.417a1 1 0 0 1-1.431 1.04l-4.912-2.415a1 1 0 0 0-.882 0l-4.912 2.415a1 1 0 0 1-1.43-1.04l.778-5.417a1 1 0 0 0-.272-.84l-3.815-3.924a1 1 0 0 1 .547-1.682l5.393-.933a1 1 0 0 0 .714-.52l2.554-4.84Z"/></mask><path d="M47.116 10.676a1 1 0 0 1 1.768 0l2.554 4.84a1 1 0 0 0 .714.52l5.393.933a1 1 0 0 1 .547 1.682l-3.815 3.925a1 1 0 0 0-.272.839l.779 5.417a1 1 0 0 1-1.431 1.04l-4.912-2.415a1 1 0 0 0-.882 0l-4.912 2.415a1 1 0 0 1-1.43-1.04l.778-5.417a1 1 0 0 0-.272-.84l-3.815-3.924a1 1 0 0 1 .547-1.682l5.393-.933a1 1 0 0 0 .714-.52l2.554-4.84Z" fill="#000"/><path d="m44.562 15.517 10.613 5.6-10.613-5.6Zm-6.654 3.134-8.605 8.364 8.605-8.364Zm.547-1.682L36.409 5.144l2.046 11.825Zm3.54 6.446 11.878 1.708-11.878-1.708Zm-.272-.84-8.606 8.364 8.606-8.363Zm.924 7.297 5.295 10.769-5.295-10.77Zm-1.43-1.04-11.878-1.708 11.877 1.708Zm6.342-1.375-5.295-10.769 5.295 10.769Zm5.794 2.415L48.058 40.64l5.295-10.77Zm.924-7.296-8.605-8.364 8.605 8.364Zm-.272.839-11.878 1.708 11.878-1.708Zm3.54-6.446L55.5 28.793l2.046-11.824Zm-6.107-1.452-10.613 5.6 10.613-5.6Zm.714.519L50.106 27.86l2.046-11.824Zm-3.268-5.36-10.613 5.6 10.613-5.6Zm-1.768 0-10.614-5.6 10.614 5.6Zm-8.845 5.6 2.554 4.84L62.052 9.917l-2.554-4.84L38.27 16.276ZM50.106 27.86l5.393.933 4.092-23.649-5.393-.933-4.092 23.649Zm-.62-17.573-3.814 3.925 17.21 16.727 3.815-3.924-17.21-16.728Zm-7.36 14.836.78 5.417 23.755-3.416-.779-5.417-23.755 3.416Zm16.522-6.02-4.912-2.415-10.59 21.538 4.912 2.415 10.59-21.538Zm-16.384-2.415-4.912 2.415 10.59 21.538 4.912-2.415-10.59-21.538Zm10.83 13.852.78-5.417-23.756-3.416-.78 5.417 23.756 3.416Zm-2.766-16.328-3.814-3.925-17.211 16.728 3.814 3.924 17.211-16.727Zm-9.827 14.581 5.393-.933L41.802 4.21l-5.393.933 4.092 23.649Zm14.674-7.677 2.554-4.84-21.227-11.2-2.554 4.841 21.227 11.2Zm-9.281 6.744a13 13 0 0 0 9.281-6.744L33.948 9.917a11 11 0 0 1 7.854-5.706l4.092 23.649Zm.62-17.573c6.164 6.343 2.702 16.998-6.013 18.506L36.409 5.144c-10.3 1.782-14.391 14.375-7.106 21.87l17.21-16.727Zm7.36 14.836a13 13 0 0 0-3.546-10.91l-17.21 16.726a11 11 0 0 1-3-9.232l23.755 3.416Zm-16.522-6.02c7.938-3.902 17.001 2.683 15.742 11.437L29.34 27.124C27.85 37.47 38.562 45.253 47.942 40.641l-10.59-21.538Zm16.384-2.415a13 13 0 0 0-11.472 0l10.59 21.538a11 11 0 0 1-9.708 0l10.59-21.538ZM42.906 30.54c-1.26-8.754 7.805-15.34 15.742-11.437l-10.59 21.538c9.38 4.612 20.091-3.17 18.603-13.517L42.906 30.54Zm2.766-16.328a13 13 0 0 0-3.545 10.911l23.755-3.416a11 11 0 0 1-3 9.232l-17.21-16.727Zm9.827 14.581c-8.715-1.508-12.177-12.163-6.013-18.505l17.211 16.727c7.285-7.496 3.194-20.089-7.106-21.87l-4.092 23.648Zm-14.674-7.677a13 13 0 0 0 9.281 6.744L54.198 4.21a11 11 0 0 1 7.854 5.706l-21.227 11.2Zm18.673-16.04c-4.878-9.244-18.118-9.244-22.996 0l21.227 11.2c-4.127 7.823-15.33 7.823-19.458 0l21.227-11.2Z" fill="#000" mask="url(#a)"/><path d="M27 19h-8M29.361 12l-4-4M26.361 29l3-3M69.361 19h8M67 12l4-4M70 29l-3-3" stroke="#000" stroke-width="4" stroke-linecap="round" stroke-linejoin="round"/></svg>
